!!!OTL: 1596. Wanderlied der Handwerksburschen.
!!!ODT: 1846
!!!ARE: Europa, Mitteleuropa, Deutschland, Hessen, Darmstadt, Lerheim
!!!SCT: E1596
!!!TXL: @@DE
!!!YEM: Copyright 1995, estate of Helmut Schaffrath.
**kern	**text
*ICvox	*
*M4/4	*
*met(c)	*
*k[]	*
*C:	*
!LO:TX:a:t=Aus Lerheim (bei Darmſtadt), 1846.	!
{4g	Von
=1	=1
4cc	Hau-
8bL	-ſe
8aJ	.
4g	muß
4f	ich
=2	=2
(4e	fort
4a	.
4g)}	.
{4g	nach
=3	=3
4.ee	ei-
8cc	-nem
4ee	frem-
8ddL	-den
8ccJ	.
=4	=4
2cc	Ort!
4r}	.
{8ccL	Von
8ddJ	.
=5	=5
4ee	fer-
4cc	-ne
4cc	bleib
4gg	ich
=6	=6
8ddL	ſte-
8bJ	.
4g	-hen
4r}	.
{4dd	Ach
=7	=7
4.cc	Gott,
8b	wie
4a	wird
4cc	mirs
=8	=8
8bL	geh-
8aJ	.
4g	-en,
4r}	.
{4cc	wenn
=9	=9
4.b	ich
8a	kein
4g	Geld
4f	mehr
=10	=10
(4e	hab
4a	.
4g)}	.
{4g	und
=11	=11
4.ee	auch
8cc	nicht
4ee	fech-
4dd	-ten
=12	=12
2cc	mag?
4r}	.
==	==
!!!AGN: Staende -, Handwerker -, Gesellen - Lied; Abschied, Wanderschaft
!!!ONB: ESAC (Essen Associative Code) Database: ERK3
!!!AMT: simple quadruple
!!!AIN: vox
!!!EED: Helmut Schaffrath
!!!EEV: 1.0
!!!GTL: Staendelieder (Berufslieder). 8. Handwerkerlieder.
!!!URL-scan: https://rosdok.uni-rostock.de/mcrviewer/recordIdentifier/rosdok_ppn745177999/iview2/phys_0424.iview2?x=-449.8344612962892&y=98.70044173463248&scale=0.47549036216460333&rotation=0&layout=singlePageLayout
!!!ENC: Anna Maria Matuszewska
!!!EEV: 2025/08/01
*-	*-
